X: 482
T: Odessa Bulgar #3
R: Bulgar, Frailach
N: from handwritten MS, slightly simplified by John Chambers
Z: 2003 John Chambers <jc:trillian.mit.edu>
M: 4/4
L: 1/8
K: Gm
"^A" D ED \
| "Gm"G2 D2 B2 D2 | G4 zG AB \
| "Cm"cB AG ^FG FE | "D"D8 \
| D^F FF FE ED | "Gm"DG GG G4 
| "Cm"Ac BA "D"BA G^F | "Gm"G4 z \
"^B":: "F7"zF2 | "Bb"Bd dd dc cB \
| Bd dd dc cB | d2 e2 d2 c=B | "F"c6 zA 
| Ac cc cB BA | Ac cc cB BA | c2 d2 c2 BA \
| "Bb"B4 z "C":: c BA \
| "Gm"G4 "Cm"zc "D7"BA | "Gm"B4 zB AG 
| "Gm"G4 "G7"ze dc | "Cm"c6 "F7"F2 \
| "Bb"B3 d fe dc | "D7"Bc AB "Gm"GA Bc \
| "Gm"~dB "D7"~cA "Gm"~BG "D7"~A^F | "Gm"G4 z :|
|[2"^Coda" "D"dB cA zd/^c/ d/e/=e/^f/ | "Gm"Hgz "D7"Hdz "Gm"HG4 |]



